austria/municipalities/70527.svg

<?xml version="1.0" encoding="UTF-8"?>
<!DOCTYPE svg PUBLIC "-//W3C//DTD SVG 1.1//EN" "http://www.w3.org/Graphics/SVG/1.1/DTD/svg11.dtd">
<svg xmlns="http://www.w3.org/2000/svg" version="1.1" width="166px" height="192px" style="shape-rendering:geometricPrecision; text-rendering:geometricPrecision; image-rendering:optimizeQuality; fill-rule:evenodd; clip-rule:evenodd" xmlns:xlink="http://www.w3.org/1999/xlink">
<g><path style="opacity:1" fill="#000000" d="M -0.5,-0.5 C 54.8333,-0.5 110.167,-0.5 165.5,-0.5C 165.5,39.5 165.5,79.5 165.5,119.5C 161.89,140.883 151.89,158.716 135.5,173C 130.672,176.581 125.672,179.915 120.5,183C 112.336,186.554 104.002,189.388 95.5,191.5C 86.8333,191.5 78.1667,191.5 69.5,191.5C 30.064,182.064 6.73062,157.397 -0.5,117.5C -0.5,78.1667 -0.5,38.8333 -0.5,-0.5 Z"/></g>
<g><path style="opacity:1" fill="#cb0000" d="M 82.5,3.5 C 82.5,4.16667 82.5,4.83333 82.5,5.5C 80.7247,14.7092 77.558,23.3759 73,31.5C 70.146,35.3505 66.9794,38.8505 63.5,42C 70.9172,49.6663 75.5839,58.833 77.5,69.5C 75.0339,70.1235 72.7006,70.9568 70.5,72C 72.6301,73.8323 74.7967,75.6657 77,77.5C 78.2525,80.0135 78.7525,82.6802 78.5,85.5C 53.51,84.5003 28.51,83.8337 3.5,83.5C 3.5,56.8333 3.5,30.1667 3.5,3.5C 29.8333,3.5 56.1667,3.5 82.5,3.5 Z"/></g>
<g><path style="opacity:1" fill="#fe9900" d="M 82.5,3.5 C 108.833,3.5 135.167,3.5 161.5,3.5C 161.5,31.8333 161.5,60.1667 161.5,88.5C 147.353,87.5109 135.853,81.5109 127,70.5C 119.94,78.4465 111.107,82.7799 100.5,83.5C 100.5,81.5 100.5,79.5 100.5,77.5C 99.5,77.5 98.5,77.5 97.5,77.5C 96.2709,83.2988 92.6043,85.9655 86.5,85.5C 86.4207,82.7294 86.9207,80.0627 88,77.5C 90.4558,75.7542 92.6225,73.7542 94.5,71.5C 92.1667,70.8333 89.8333,70.1667 87.5,69.5C 88.8437,64.4598 90.3437,59.4598 92,54.5C 94.8141,50.0253 97.9808,45.8586 101.5,42C 91.0454,31.9224 84.712,19.7557 82.5,5.5C 82.5,4.83333 82.5,4.16667 82.5,3.5 Z"/></g>
<g><path style="opacity:1" fill="#fe9900" d="M 156.5,89.5 C 158.167,89.5 159.833,89.5 161.5,89.5C 166.526,126.655 153.859,155.821 123.5,177C 112.626,183.237 100.959,186.737 88.5,187.5C 88.1526,158.492 87.4859,129.492 86.5,100.5C 86.5173,91.5174 90.0173,90.5174 97,97.5C 97.4828,98.448 97.6495,99.448 97.5,100.5C 98.5,100.5 99.5,100.5 100.5,100.5C 100.5,98.5 100.5,96.5 100.5,94.5C 110.973,95.4695 119.807,99.8029 127,107.5C 131.221,103.311 135.721,99.4777 140.5,96C 145.789,93.5155 151.122,91.3488 156.5,89.5 Z"/></g>
<g><path style="opacity:1" fill="#cb0000" d="M 33.5,93.5 C 48.5,93.5 63.5,93.5 78.5,93.5C 78.0554,124.84 77.3888,156.173 76.5,187.5C 45.8646,184.431 23.6979,169.097 10,141.5C 4.0552,126.415 1.88853,110.748 3.5,94.5C 13.6806,94.8274 23.6806,94.494 33.5,93.5 Z"/></g>
<g><path style="opacity:1" fill="#fefffe" d="M -0.5,117.5 C 6.73062,157.397 30.064,182.064 69.5,191.5C 46.1667,191.5 22.8333,191.5 -0.5,191.5C -0.5,166.833 -0.5,142.167 -0.5,117.5 Z"/></g>
<g><path style="opacity:1" fill="#fefffe" d="M 165.5,119.5 C 165.5,143.5 165.5,167.5 165.5,191.5C 142.167,191.5 118.833,191.5 95.5,191.5C 104.002,189.388 112.336,186.554 120.5,183C 125.672,179.915 130.672,176.581 135.5,173C 151.89,158.716 161.89,140.883 165.5,119.5 Z"/></g>
</svg>

<svg xmlns="http://www.w3.org/2000/svg" width="166" height="192" style="shape-rendering:geometricPrecision;text-rendering:geometricPrecision;image-rendering:optimizeQuality;fill-rule:evenodd;clip-rule:evenodd"><path style="opacity:1" d="M-.5-.5h166v120c-3.61 21.383-13.61 39.216-30 53.5a179.617 179.617 0 0 1-15 10 157.946 157.946 0 0 1-25 8.5h-26c-39.436-9.436-62.77-34.103-70-74V-.5z"/><path style="opacity:1" fill="#cb0000" d="M82.5 3.5v2c-1.775 9.21-4.942 17.876-9.5 26A71.724 71.724 0 0 1 63.5 42c7.417 7.666 12.084 16.833 14 27.5a38.094 38.094 0 0 0-7 2.5 528.157 528.157 0 0 0 6.5 5.5c1.252 2.513 1.752 5.18 1.5 8-24.99-1-49.99-1.666-75-2v-80h79z"/><path style="opacity:1" fill="#fe9900" d="M82.5 3.5h79v85c-14.147-.99-25.647-6.99-34.5-18-7.06 7.947-15.893 12.28-26.5 13v-6h-3c-1.23 5.799-4.896 8.466-11 8-.08-2.77.42-5.437 1.5-8a34.201 34.201 0 0 0 6.5-6l-7-2a253.534 253.534 0 0 1 4.5-15 88.132 88.132 0 0 1 9.5-12.5c-10.455-10.078-16.788-22.244-19-36.5v-2zM156.5 89.5h5c5.026 37.155-7.641 66.321-38 87.5-10.874 6.237-22.541 9.737-35 10.5a3952.424 3952.424 0 0 0-2-87c.017-8.983 3.517-9.983 10.5-3 .483.948.65 1.948.5 3h3v-6c10.473.97 19.307 5.303 26.5 13A116.223 116.223 0 0 1 140.5 96a159.827 159.827 0 0 1 16-6.5z"/><path style="opacity:1" fill="#cb0000" d="M33.5 93.5h45a6631.104 6631.104 0 0 1-2 94c-30.635-3.069-52.802-18.403-66.5-46-5.945-15.085-8.111-30.752-6.5-47 10.18.327 20.18-.006 30-1z"/><path style="opacity:1" fill="#fefffe" d="M-.5 117.5c7.23 39.897 30.564 64.564 70 74h-70v-74zM165.5 119.5v72h-70a157.946 157.946 0 0 0 25-8.5 179.617 179.617 0 0 0 15-10c16.39-14.284 26.39-32.117 30-53.5z"/></svg>
